X:1
T:Title
L:1/8
Q:1/4=140
M:4/4
K:Bb
V:1 treble nm="Church Organ, Staff"
V:1
 G3 ^F G4 | d3 e d4- | d2 c2 B2 c2 | d2 cB c4 | z2 c>c d4 | d4 c2 B2 | A4 G4 | G3 ^F G4 | %8
w: By~Traditional * *||||||||
 d3 e d4- | d2 c2 B2 c2 | d2 cB c4 | z2 B>c d4 | d4 d2 B2 | A4 G4 | ^F4 G3 A | B2 c2 d4- | %16
w: ||||||||
 d2 B2 c4 | B4 A4 | z2 A2 B4 | A4 B4 | c4 d4 | z2 A2 B2 c2 | d2 e2 d4- | d2 c2 B2 c2 | d2 cB c4 | %25
w: |||||||||
 z2 z z/ B/- B/B/ d3- | d d3- d/ z/ c2 B- | B A3- A/ z/ G3- | G2 z2 z4 |] %29
w: ||||

